assets/lock-fill.svg

<svg xmlns="http://www.w3.org/2000/svg" fill="none" viewBox="0 0 20 25">
  <path stroke="#2A2238" stroke-width="3" d="M6 9.92304V5.33768c1-4.450255 7-4.450243 8 .00002v4.58534"/>
  <path fill="#2A2238" fill-rule="evenodd" d="M0 10.923V23.38c0 .5523.447715 1 1 1h18c.5523 0 1-.4477 1-1V10.923c0-.5523-.4477-.99997-1-.99997H1c-.552285 0-1 .44767-1 .99997Zm10 11.6499c1.1046 0 2-1.2136 2-2.7107s-.8954-2.7107-2-2.7107c-1.10457 0-2 1.2136-2 2.7107s.89543 2.7107 2 2.7107Z" clip-rule="evenodd"/>
</svg>

<svg width="20" height="25" viewBox="0 0 20 25" fill="none" xmlns="http://www.w3.org/2000/svg">
<path d="M6 9.92304V5.33768C7 0.887425 13 0.887437 14 5.3377V9.92304" stroke="#2A2238" stroke-width="3"/>
<path fill-rule="evenodd" clip-rule="evenodd" d="M0 10.923V23.38C0 23.9323 0.447715 24.38 1 24.38H10H19C19.5523 24.38 20 23.9323 20 23.38V10.923C20 10.3707 19.5523 9.92303 19 9.92303H1C0.447715 9.92303 0 10.3707 0 10.923ZM10 22.5729C11.1046 22.5729 12 21.3593 12 19.8622C12 18.3651 11.1046 17.1515 10 17.1515C8.89543 17.1515 8 18.3651 8 19.8622C8 21.3593 8.89543 22.5729 10 22.5729Z" fill="#2A2238"/>
</svg>
